X: 09028
T: DAVE STONE'S
C: Bob McQuillen 8 Mar 92
B: Bob's Note Book 9 #28
%R: reel
Z: 2019 John Chambers <jc:trillian.mit.edu>
M: C
L: 1/8
K: G
BA \
| G2D[EB,] D2GA | BdBG AGBA | G2Bd edBd | gabg a2ga |
| b2gb ageg | d2BG AGEG | DGBd gedB | A2 G4 :|
|: [GB,][EC] \
| D2GA BAGE | D2GB AGBA | G2[GD][EB,] DEGA | BdBG A2[GB,][EC] |
| D2GA BAGE | D2GB AGBA | GED[EB,] DEGA | B2 G4 :|
%%text (The top note in 2-note"chords" are flagged as flute notes by having 'x' instead of the note head.)
%%begintext align
%% David lives over
%% in Nelson. He is a forester by trade, plays the
%% guitar real well, and loves to dance. On
%% Sunday nights he comes out of the woods long
%% enough to MC the Folk Show on radio station
%% WEVO up in Concord, something we all look forward
%% to so much. We really appreciate all you do, Dave!
%%endtext

%%sep 1 1 500

%%sep 1 1 500

